assets/images/logos/mame.svg

<?xml version="1.0" encoding="utf-8"?>
<!-- Generator: Adobe Illustrator 22.1.0, SVG Export Plug-In . SVG Version: 6.00 Build 0)  -->
<svg version="1.1" id="Layer_1" xmlns="http://www.w3.org/2000/svg" xmlns:xlink="http://www.w3.org/1999/xlink" x="0px" y="0px"
	 width="566.9px" height="157.8px" viewBox="0 0 566.9 157.8" style="enable-background:new 0 0 566.9 157.8;" xml:space="preserve"
	>
<style type="text/css">
	.st0{fill:#FFFFFF;}
</style>
<path class="st0" d="M491.2,27.7l45.6,0.3l21.2-22l-78-0.3l-73.3,73.6l-10.3,0.6L396.7,9l-41.2,42.1l-9.9,1.2V9.4l-84.4,83.5
	L250.8,94l0.9-85.9l-73.7,74.9l-9.7,0l-1.1-71.9l-39.8,40.1l-11.1,0.6l0.4-42.8l-105.1,106l34.6-0.6l45.4-44.1h8.7l-0.4,44.3
	l36.2-37h8.6v37.7l-39.8,39.5l38.1-0.6l75-75.9h10.1v37.3l46.8,0.3l45.2-45.5l8.7-0.6l-0.1,43l36.1-36.1h8.5l0.6,36.4l-0.7,1.9
	h109.2l20.9-21.2l-67.9-1.2l-0.6-9.9l10.6-11.1l25.6,0l22.2-22.5l-13.4-0.6v-9.5L491.2,27.7z"/>
</svg>

<?xml version="1.0" standalone="no"?><!-- Generator: Gravit.io --><svg xmlns="http://www.w3.org/2000/svg" xmlns:xlink="http://www.w3.org/1999/xlink" style="isolation:isolate" viewBox="0 0 566.9 157.8" width="566.9" height="157.8"><defs><clipPath id="_clipPath_SDQRK88AUgNu6CQjUQrBHQXyoAe9bsPp"><rect width="566.9" height="157.8"/></clipPath></defs><g clip-path="url(#_clipPath_SDQRK88AUgNu6CQjUQrBHQXyoAe9bsPp)"><path d=" M 491.2 27.7 L 536.8 28 L 558 6 L 480 5.7 L 406.7 79.3 L 396.4 79.9 L 396.7 9 L 355.5 51.1 L 345.6 52.3 L 345.6 9.4 L 261.2 92.9 L 250.8 94 L 251.7 8.1 L 178 83 L 168.3 83 L 167.2 11.1 L 127.4 51.2 L 116.3 51.8 L 116.7 9 L 11.6 115 L 46.2 114.4 L 91.6 70.3 L 100.3 70.3 L 99.9 114.6 L 136.1 77.6 L 144.7 77.6 L 144.7 115.3 L 104.9 154.8 L 143 154.2 L 218 78.3 L 228.1 78.3 L 228.1 115.6 L 274.9 115.9 L 320.1 70.4 L 328.8 69.8 L 328.7 112.8 L 364.8 76.7 L 373.3 76.7 L 373.9 113.1 L 373.2 115 L 482.4 115 L 503.3 93.8 L 435.4 92.6 L 434.8 82.7 L 445.4 71.6 L 471 71.6 L 493.2 49.1 L 479.8 48.5 L 479.8 39 L 491.2 27.7 L 491.2 27.7 Z " fill="rgb(255,255,255)"/></g></svg>
